X:1
T:GAUDEAMUS IGITUR
T:GAUDEAMUS IGITUR
T:Anonymous, German early 18th Cenurry
T:© James W Keefe 2011
T:© James W Keefe 2011
T:© James W Keefe 2011
T:© James W Keefe 2011
T:© James W Keefe 2011
T:© James W Keefe 2011
T:© James W Keefe 2011
C:Anonymous, German early 18th Cenurry
Z:© James W Keefe 2011
%%score [ 1 2 3 4 ]
L:1/8
Q:1/4=100
M:3/4
K:Eb
V:1 treble-8 nm="Tenor 1" snm="T 1"
V:2 treble-8 nm="Tenor 2" snm="T 2"
V:3 bass nm="Baritone" snm="B"
V:4 bass nm="Bass" snm="B"
V:1
|:"^Moderato"!p! e>B B2 e2 | c>c c4 | d>e f2 d2 | eg e2 z2 :|!mp! d>e f2 f2 | ge f2 f2 | %6
w: Gau- de- a- mus|i- gi- tur,|Ju- ve- nes dum|su- * mus!|Post ju- cun- dum|ju- ven- tu- tem,|
 d>e f2 f2 | ge f2 f2 |!mf! e>d c2 af | (e4 f2) | g4 z2 | e>d c2 af | (e4 d2) | e4 z2 |: %14
w: Post mo- le- tam|sen- ec- tu- tem,|Nos ha- be- bit- *|hu- *|mus,|Nos ha- be- bit- *|hu- *|mus.|
[K:Bb][K:treble]"^Soprano" B>F F2 B2 | G>G G4 |"^XX" A>B c2 A2 | Bd B2 z2 :| A>B c2 c2 | dB c4 | %20
w: Vi- vat a- ca-|de- mi- a,|Vi- vant pro- fes-|so- * res!|Vi- vat mem- brum|quod- li- bet,|
"^XX" A>B c2 c2 | dB c4 | B>A G2 ec | (B2 c2) !fermata!d2 |"^XX" B>A G2 ec | (B2 A2) !fermata!B2 |: %26
w: Vi- vat mem- bra|quae- li- bet,|Sem- per sint in- *|flo- * re,|Sem- per sint in- *|flo- * re.|
[K:C] c>G G2 c2 | A>A A4 |"^XX" B>c d2 B2 | ce c2 z2 :| B>c d2 d2 | ec d4 |"^XX" B>c d2 d2 | %33
w: Vi- vat et res|pu- bli- ca|et qui il- lam|re- * git.|Vi vat nos- tra|ci- vi- tas,|Mae- ce- na- tum|
 ec d4 | c>B A2 fd | (c2 d2) !fermata!e2 |"^XX" c>B A2 fd | (c2 B2) !fermata!c2 |: %38
w: ca- ri- tas,|Quae nos hic pro- *|te- * git,|Quae nos hic pro- *|te- * git.|
[Q:1/4=85]"^Maestoso"!f! c>G G2 c2 | A>A A4 |"^XX" B>c d2 B2 | ce c2 z2 :| B>c d2 d2 | ec d2 d2 | %44
w: Gau- de- a- mus|i- gi- tur,|ju- ve- nes- dum|su- * mus!|Post ju- cun- dum|ju- ven- tu- tem,|
"^XX" B>c d2 d2 | ec d2 d2 | c>B A2 fd | (c2 d2) !fermata!e2 |!ff!"^XX" c>B Af ed | g6 | g6 |] %51
w: Post mo- les- tam|se- nec- tu- tem,|Nos ha- be- bit- *|hu- * mus,|Nos ha- be- * bit- *|hu-|mus.|
V:2
|: B>B B2 B2 | c>c c4 | B>B B2 B2 | B2 B2 z2 :| B>c d2 d2 | ee d2 d2 | B>c d2 d2 | ee d2 d2 | %8
w: ||||||||
 B>B A2 c2 | (B4 d2) | e4 z2 | B>B A2 c2 | (B4 A2) | G4 z2 |:[K:Bb][K:treble]"^Alto" D>B, B,2 D2 | %15
w: |||||||
 E>E E4 |"^XX" E>E E2 E2 | Bd B2 z2 :| F>F F2 F2 | FF (F2 A2) |"^XX" F>F F2 F2 | FF (F2 A2) | %22
w: |||||||
 F>F E2 GE | (F2 ^F2) !fermata!G2 |"^XX" F>F E2 GE | (F2 E2) !fermata!D2 |:[K:C] E>C C2 E2 | %27
w: |||||
 F>F F4 |"^XX" F>F F2 F2 | ce c2 z2 :| G>G G2 G2 | GG (G2 B2) |"^XX" G>G G2 G2 | GG (G2 B2) | %34
w: |||||||
 G>G F2 AF | (G2 ^G2) !fermata!A2 |"^XX" G>G F2 AF | (G2 F2) !fermata!E2 |: (3EFG (3CDE G>E | %39
w: ||||Gau- * * de- * * a- mus|
 F>F F4 |"^XX" (3FGA (3Bcd BG | ce c2 z2 :| G>G G2 G2 | GG G2 B2 |"^XX" G>G G2 G2 | GG G2 B2 | %46
w: i- gi- tur,|ju- * * ve- * * nes dum|su- * mus!|Post ju- cun- dum|ju- ven- tu- tem,|Post mo- les- tam|se- nec- tu- tem,|
 G>G FA BA | (G2 ^G2) !fermata!A2 |"^XX" G>G FA A2 | (c2 A2 B2) | c6 |] %51
w: Nos ha- be- * bit- *|hu- * mus,|Nos ha- be- * bit|hu- * *|mus.|
V:3
|: G,>G, G,2 G,2 | A,>A, A,4 | F,>G, A,2 F,2 | G,B, G,2 z2 :| B,>B, B,2 B,2 | B,B, B,2 B,2 | %6
w: Gau- de- a- mus|i- gi- tur,|Ju- ve- nes dum|su- * mus!|Post ju- cun- dum|ju- ven- tu- tem,|
 F,>F, B,2 B,2 | B,B, B,2 B,2 | E,>E, E,2 A,2 | (G,4 B,2) | B,4 z2 | E,>E, E,2 A,2 | (G,4 F,2) | %13
w: Post mo- les- tam|sen- ec- tu- tem,|Nos ha- be- bit|hu- *|mus,|Nos ha- be bit|hu- *|
 E,4 z2 |:[K:Bb][K:treble-8]"^Tenor" F>F F2 B2 | B>B c4 |"^X" c>c f2 c2 | B2 d2 z2 :| c>c c2 A2 | %19
w: mus.|Vi- vat a- ca-|de- mi- a,|Vi- vant- pro- fes-|so- res!|Vi- vat mem- brum|
 Bd c4 |"^X" c>c c2 A2 | Bd c4 | B>B B2 c2 | (d2 c2) !fermata!B2 |"^X" B>B B2 c2 | %25
w: quod- li- bet,|Vi- vat mem- bra|quae- li- bet,|Sem- per sint in-|flo- * re,|Sem- per sint in|
 (d2 c2) !fermata!B2 |:[K:C] G>G G2 c2 | c>c d4 |"^X" d>d g2 d2 | c2 e2 z2 :| d>d d2 B2 | ce d4 | %32
w: flo- * re.|Vi- vat et res|pu- bli- ca|et qui il- lam|re- git.|Vi- vat nos- tra|ci- vi- tas,|
"^X" d>d d2 B2 | ce d4 | c>c c2 d2 | (e2 d2) !fermata!c2 |"^X" c>c c2 d2 | (e2 d2) !fermata!c2 |: %38
w: Mae- ce- na- tum|ca- ri- tas,|Quae nos hic pro-|te- * git,|Quae nos hic pro-|te- * git.|
 (3edc (3cBA E>G | c>c d4 |"^X" (3de^f (3ged dB | c2 e2 z2 :| d>d d2 B2 | ce d2 d2 | %44
w: Gau- * * de- * * a- mus|i- gi- tur,|ju- * * ve- * * nes dum|su- mus!|Post ju- cun- dum|ju- ven- tu- tem,|
"^X" d>d d2 B2 | ce d2 d2 | c>c ce df | (e2 d2) !fermata!c2 |"^X" c>c c2 c2 | (e2 d2 f2) | e6 |] %51
w: Post mo- les- tam|se- nec- tu- tem,|Nos ha- be- * bit- *|hu- * mus,|Nos ha- be- bit-|hu- * *|mus.|
V:4
|: E,>E, E,2 E,2 | A,,>A,, A,,4 | B,,>B,, B,,2 B,,2 | E,2 E,2 z2 :| B,,>B,, B,,2 B,,2 | %5
w: |||||
 E,G, B,2 B,,2 | B,,>B,, B,,2 B,,2 | E,G, B,2 B,,2 | G,,>G,, A,,2 F,,A,, | B,,6 | E,4 z2 | %11
w: ||||||
 G,,>G,, A,,2 F,,A,, | B,,6 | E,,4 z2 |:[K:Bb]"^Bass" B,,>D, D,2 B,,2 | E,>D, C,4 | F,>G, A,2 F,2 | %17
w: ||||||
 B,2 B,,2 z2 :| F,>G, A,2 F,2 | B,B, (A,2 F,2) | F,>G, A,2 F,2 | B,B, (A,2 F,2) | D,>D, E,2 C,E, | %23
w: ||||||
 (B,2 A,2) !fermata!G,2 | D,>D, E,2 C,E, | F,4 !fermata!B,,2 |:[K:C] C,>E, E,2 C,2 | F,>E, D,4 | %28
w: |||||
 G,>A, B,2 G,2 | C2 C,2 z2 :| G,>A, B,2 G,2 | CC (B,2 G,2) | G,>A, B,2 G,2 | CC (B,2 G,2) | %34
w: ||||||
 E,>E, F,2 D,F, | (C2 B,2) !fermata!A,2 | E,>E, F,2 D,F, | G,4 !fermata!C,2 |: C,>E, E,2 C,2 | %39
w: ||||Gau- de- a- mus|
 F,>E, D,4 | G,>A, B,2 G,2 | C2 C,2 z2 :| (3G,F,E, (3D,C,B,, G,,B,, | C,E, G,2 G,,2 | %44
w: i- gi- tur,|ju- ve- nes dum|su- mus!|Post- * * ju- * * cun- dum|ju- ven- tu- tem,|
 (3G,F,E, (3D,C,B,, G,,B,, | C,E, G,2 G,,2 | E,>E, F,E, D,F, | (C2 B,2) !fermata!A,2 | %48
w: Post- * * Mo- * * les- tam|se- nec- tu- tem,|Nos ha- be- * bit- *|hu- * mus,|
 E,>E, D,F, A,F, | (G,2 G,,4) | C,6 |] %51
w: Nos ha- be- * bit- *|hu- *|mus.|

